humanity-icon-theme/Humanity/status/22/user-invisible-panel.svg

<?xml version="1.0" encoding="UTF-8" standalone="no"?>
<!-- Created with Inkscape (http://www.inkscape.org/) -->

<svg
   xmlns:svg="http://www.w3.org/2000/svg"
   xmlns="http://www.w3.org/2000/svg"
   version="1.1"
   width="22"
   height="22"
   id="svg2816"
   style="display:inline">
  <defs
     id="defs2818" />
  <path
     d="M 8,16 C 6.4722222,15.968749 4,15 4,12 L 4,9 C 4,6 6.5,5.0833333 8,5 l 7,0 c 1.5,0.1145829 4,1 4,4 l 0,3 c 0,3 -1.513889,4 -3,4 -2.396168,-0.01417 -0.516156,2.724315 0,4 L 15.333333,20 11,16 l 0,-1 5,0 c 1,0 2,-1 2,-3 L 18,9 C 18,7 16,6 15,6 L 8,6 C 7,6 5,7 5,9 l 0,3 c 0,2 2,3 3,3 l 3,0 0,1 -3,0 z"
     id="path2819"
     style="fill:#606060;fill-opacity:1;stroke:none" />
</svg>

<?xml version="1.0" encoding="UTF-8" standalone="no"?>
<!-- Created with Inkscape (http://www.inkscape.org/) -->
<svg id="svg2816" xmlns="http://www.w3.org/2000/svg" height="22" width="22" version="1.1">
 <path id="path2819" style="fill:#606060" d="m8 16c-1.5278-0.031-4-1-4-4v-3c0-3 2.5-3.9167 4-4h7c1.5 0.11458 4 1 4 4v3c0 3-1.5139 4-3 4-2.3962-0.01417-0.51616 2.7243 0 4h-0.667l-4.333-4v-1h5c1 0 2-1 2-3v-3c0-2-2-3-3-3h-7c-1 0-3 1-3 3v3c0 2 2 3 3 3h3v1h-3z"/>
</svg>
